public/icons/logo.svg

<svg width="166" height="50" fill="none" xmlns="http://www.w3.org/2000/svg"><path d="M37.6573 10.3345c.6481.6498 1.2486 1.3365 1.7982 2.0534-.0109-1.4555-.1646-2.81045-.4527-4.01301-2.7369-2.64714-6.0158-4.5364-9.582-5.56393-1.358-.39109-2.7586-.65739-4.1859-.79306-.7291-.06867-1.4657-.10384-2.2074-.10384-6.1511 0-11.9338 2.40177-16.2826 6.76314C2.39529 13.0377 0 18.8361 0 25.0039c0 4.8789 1.49914 9.5267 4.27778 13.414-.05261-1.3415.00752-2.7635.1804-4.2433-1.38723-2.8171-2.11968-5.9374-2.11968-9.1707 0-5.5413 2.15225-10.751 6.05921-14.6694C11.979 6.7444 16.6418 4.63154 21.6495 4.30411c.4568-.03015.9162-.04522 1.378-.04522.9037 0 1.799.05778 2.6809.17167 4.5108.58118 8.6801 2.62704 11.9489 5.90394Z" fill="url(#a)"/><path d="M39.3102 41.3305c4.3496-4.3605 6.7449-10.1589 6.7449-16.3266 0-4.8789-1.4992-9.5267-4.2778-13.4141.0526 1.3416-.0075 2.7635-.1804 4.2433 1.3872 2.8171 2.1197 5.9374 2.1197 9.1708 0 5.5413-2.1523 10.751-6.0593 14.6694-3.5812 3.59-8.244 5.7029-13.2517 6.0303-.4569.0302-.9162.0453-1.3781.0453-.9036 0-1.7989-.0578-2.6809-.1717-4.5108-.5812-8.68-2.6271-11.94888-5.9039-.6481-.6499-1.24859-1.3366-1.79814-2.0534.01086 1.4554.16453 2.8104.45267 4.013 2.73687 2.6471 6.01575 4.5363 9.58195 5.5639 1.358.3911 2.7586.6574 4.186.793.7291.0687 1.4657.1039 2.2073.1039 6.1511 0 11.9339-2.4018 16.2827-6.7632Z" fill="url(#b)"/><path d="M41.7796 11.5859c-.1921-4.82778-1.8499-8.63394-5.0035-10.45955C35.4582.36261 33.9715 0 32.3763 0c-2.2215 0-4.6552.704284-7.1391 2.01404 1.4274.13566 2.828.40197 4.186.79305 1.0364-.30483 2.0278-.46227 2.9531-.46227 1.2127 0 2.3001.27301 3.2305.81232 1.2595.72857 2.2316 1.93783 2.8914 3.59344.1996.50162.3691 1.04344.507 1.62044.2881 1.20256.4418 2.55758.4526 4.01298.0025.2931-.0008.5912-.01.8927-.0818 2.6606-.5963 5.5388-1.5275 8.5528-.9764 3.1621-2.3686 6.3234-4.1375 9.3952-2.8463 4.9434-6.3707 9.1448-10.1917 12.1495-1.0866.855-2.1731 1.5903-3.2421 2.1991.8819.1139 1.7772.1717 2.6809.1717.4618 0 .9212-.0151 1.378-.0452 4.1091-3.0718 8.148-7.6542 11.4002-13.3027 3.2555-5.6552 5.1948-11.4603 5.7911-16.5679.1729-1.4797.233-2.9017.1804-4.2433ZM13.6834 47.6552c-1.2127 0-2.3001-.273-3.2305-.8123-1.25942-.7286-2.23156-1.9379-2.89135-3.5935-.19961-.5016-.36915-1.0434-.50696-1.6204-.28813-1.2026-.4418-2.5576-.45266-4.013-.00251-.2931.00083-.5912.01002-.8927.08185-2.6606.59632-5.5388 1.52754-8.5528.97632-3.1621 2.36861-6.3235 4.13751-9.3952 2.8462-4.9434 6.3707-9.14478 10.1916-12.1495 1.0866-.85502 2.1732-1.59029 3.2422-2.19911-.882-.11389-1.7773-.17167-2.6809-.17167-.4619 0-.9212.01507-1.3781.04522-4.109 3.07172-8.148 7.65416-11.4001 13.30266-3.25557 5.6552-5.19485 11.4603-5.79117 16.5679-.17288 1.4797-.23301 2.9017-.1804 4.2433.1921 4.8278 1.84992 8.6339 5.00355 10.4595C10.6016 49.6374 12.0882 50 13.6834 50c2.2216 0 4.6553-.7043 7.1391-2.014-1.4273-.1357-2.8279-.402-4.1859-.7931-1.0365.3048-2.0278.4623-2.9532.4623ZM67.9445 36.3033c-1.42 0-2.8654-.2536-4.3362-.7607-1.4453-.5326-2.7132-1.2426-3.8036-2.1301l1.4834-2.092c2.2315 1.6736 4.501 2.5104 6.8086 2.5104 1.1918 0 2.168-.2916 2.9288-.8748.7607-.5833 1.1411-1.3567 1.1411-2.3203 0-.8875-.4184-1.5721-1.2552-2.0539-.8115-.4818-2.0287-.9509-3.6516-1.4074-.9889-.2789-1.775-.5325-2.3582-.7607-.5832-.2282-1.2425-.5452-1.9779-.9509-.7354-.4311-1.2806-.9636-1.6356-1.5976-.355-.6593-.5325-1.4327-.5325-2.3202 0-1.6736.6213-3.0302 1.8638-4.0699 1.2679-1.0397 2.8781-1.5595 4.8306-1.5595 2.5358 0 4.8941.7227 7.0748 2.1681l-1.3313 2.2061c-1.9525-1.2679-3.8924-1.9018-5.8195-1.9018-1.1411 0-2.0667.2789-2.7767.8368-.6847.5325-1.027 1.2298-1.027 2.092 0 .355.1014.6846.3043.9889.2029.3043.4311.5579.6847.7608.2535.2028.6466.4184 1.1791.6466.5579.2282 1.0016.393 1.3313.4945.3296.1014.8494.2662 1.5595.4944.9382.279 1.7116.5452 2.3202.7988.6086.2536 1.2552.5959 1.9399 1.027.6846.4311 1.1918.9763 1.5214 1.6356.355.6339.5325 1.382.5325 2.2441 0 1.8258-.6593 3.2712-1.9779 4.3362-1.3186 1.0397-2.9922 1.5595-5.0208 1.5595ZM79.6235 42.0088V16.258h2.9288v3.9558c1.9779-2.9161 4.4883-4.3742 7.5313-4.3742 2.5104 0 4.7038.9383 6.5803 2.8147 1.8764 1.8511 2.8147 4.3362 2.8147 7.4552 0 3.0683-.9383 5.5407-2.8147 7.4171-1.8765 1.8765-4.0699 2.8147-6.5803 2.8147-3.0937 0-5.6041-1.3947-7.5313-4.184v9.8515h-2.9288Zm9.9275-8.292c1.9779 0 3.6262-.6847 4.9448-2.054 1.3186-1.3946 1.9779-3.2584 1.9779-5.5913 0-2.2569-.672-4.0826-2.0159-5.4773-1.344-1.42-2.9796-2.13-4.9068-2.13-1.9018 0-3.5627.7226-4.9827 2.168-1.4201 1.4454-2.1301 3.2712-2.1301 5.4773 0 2.2061.71 4.0319 2.1301 5.4773 1.42 1.42 3.0809 2.13 4.9827 2.13ZM104.388 35.9229V16.258h2.928v19.6649h-2.928ZM113.619 35.9229V8.15625h2.929V35.9229h-2.929ZM122.584 35.9229V16.258h2.929v3.4233c1.547-2.5611 3.791-3.8417 6.732-3.8417 2.333 0 4.172.7227 5.516 2.1681 1.344 1.42 2.016 3.3219 2.016 5.7055v12.2097h-2.929v-11.487c0-1.8511-.482-3.2965-1.446-4.3362-.938-1.065-2.269-1.5975-3.994-1.5975-1.698 0-3.106.5705-4.222 1.7116-1.115 1.1411-1.673 2.6246-1.673 4.4503v11.2588h-2.929ZM161.579 33.3745c-1.977 2.0032-4.424 3.0049-7.341 3.0049-2.916 0-5.35-1.0017-7.303-3.0049-1.927-2.0033-2.89-4.4249-2.89-7.265 0-2.8147.976-5.2237 2.928-7.2269 1.978-2.0287 4.425-3.043 7.341-3.043 2.917 0 5.351 1.0017 7.304 3.0049 1.952 2.0033 2.928 4.4249 2.928 7.265 0 2.8147-.989 5.2364-2.967 7.265Zm-7.265.3803c2.105 0 3.829-.7353 5.173-2.2061 1.37-1.4707 2.054-3.2838 2.054-5.4392 0-2.1301-.71-3.9431-2.13-5.4392-1.394-1.4961-3.119-2.2442-5.173-2.2442-2.104 0-3.829.7481-5.173 2.2442-1.344 1.4707-2.015 3.2838-2.015 5.4392 0 2.13.697 3.9431 2.092 5.4392 1.394 1.4708 3.119 2.2061 5.172 2.2061ZM105.871 12.4823c1.195 0 2.163-.9684 2.163-2.163 0-1.19463-.968-2.16305-2.163-2.16305-1.194 0-2.163.96842-2.163 2.16305 0 1.1946.969 2.163 2.163 2.163Z" fill="#fff"/><defs><linearGradient id="a" x1="37.2418" y1="12.6289" x2="8.17671" y2="41.5266" gradientUnits="userSpaceOnUse"><stop offset="0" stop-color="#7EC9FF"/><stop offset="0" stop-color="#7EC9FF"/><stop offset=".50729" stop-color="#16E8E5"/><stop offset="1" stop-color="#0052F2"/><stop offset="1" stop-color="#0052F2"/></linearGradient><linearGradient id="b" x1="37.2418" y1="12.6289" x2="8.17671" y2="41.5266" gradientUnits="userSpaceOnUse"><stop offset="0" stop-color="#7EC9FF"/><stop offset="0" stop-color="#7EC9FF"/><stop offset=".50729" stop-color="#16E8E5"/><stop offset="1" stop-color="#0052F2"/><stop offset="1" stop-color="#0052F2"/></linearGradient></defs></svg>

<svg width="166" height="50" viewBox="0 0 166 50" fill="none" xmlns="http://www.w3.org/2000/svg">
<path d="M37.6573 10.3345C38.3054 10.9843 38.9059 11.671 39.4555 12.3879C39.4446 10.9324 39.2909 9.57745 39.0028 8.37489C36.2659 5.72775 32.987 3.83849 29.4208 2.81096C28.0628 2.41987 26.6622 2.15357 25.2349 2.0179C24.5058 1.94923 23.7692 1.91406 23.0275 1.91406C16.8764 1.91406 11.0937 4.31583 6.7449 8.6772C2.39529 13.0377 0 18.8361 0 25.0039C0 29.8828 1.49914 34.5306 4.27778 38.4179C4.22517 37.0764 4.2853 35.6544 4.45818 34.1746C3.07095 31.3575 2.3385 28.2372 2.3385 25.0039C2.3385 19.4626 4.49075 14.2529 8.39771 10.3345C11.979 6.7444 16.6418 4.63154 21.6495 4.30411C22.1063 4.27396 22.5657 4.25889 23.0275 4.25889C23.9312 4.25889 24.8265 4.31667 25.7084 4.43056C30.2192 5.01174 34.3885 7.0576 37.6573 10.3345Z" fill="url(#paint0_linear_629_14424)"/>
<path d="M39.3102 41.3305C43.6598 36.97 46.0551 31.1716 46.0551 25.0039C46.0551 20.125 44.5559 15.4772 41.7773 11.5898C41.8299 12.9314 41.7698 14.3533 41.5969 15.8331C42.9841 18.6502 43.7166 21.7705 43.7166 25.0039C43.7166 30.5452 41.5643 35.7549 37.6573 39.6733C34.0761 43.2633 29.4133 45.3762 24.4056 45.7036C23.9487 45.7338 23.4894 45.7489 23.0275 45.7489C22.1239 45.7489 21.2286 45.6911 20.3466 45.5772C15.8358 44.996 11.6666 42.9501 8.39772 39.6733C7.74962 39.0234 7.14913 38.3367 6.59958 37.6199C6.61044 39.0753 6.76411 40.4303 7.05225 41.6329C9.78912 44.28 13.068 46.1692 16.6342 47.1968C17.9922 47.5879 19.3928 47.8542 20.8202 47.9898C21.5493 48.0585 22.2859 48.0937 23.0275 48.0937C29.1786 48.0937 34.9614 45.6919 39.3102 41.3305Z" fill="url(#paint1_linear_629_14424)"/>
<path d="M41.7796 11.5859C41.5875 6.75812 39.9297 2.95196 36.7761 1.12635C35.4582 0.36261 33.9715 0 32.3763 0C30.1548 0 27.7211 0.704284 25.2372 2.01404C26.6646 2.1497 28.0652 2.41601 29.4232 2.80709C30.4596 2.50226 31.451 2.34482 32.3763 2.34482C33.589 2.34482 34.6764 2.61783 35.6068 3.15714C36.8663 3.88571 37.8384 5.09497 38.4982 6.75058C38.6978 7.2522 38.8673 7.79402 39.0052 8.37102C39.2933 9.57358 39.447 10.9286 39.4578 12.384C39.4603 12.6771 39.457 12.9752 39.4478 13.2767C39.366 15.9373 38.8515 18.8155 37.9203 21.8295C36.9439 24.9916 35.5517 28.1529 33.7828 31.2247C30.9365 36.1681 27.4121 40.3695 23.5911 43.3742C22.5045 44.2292 21.418 44.9645 20.349 45.5733C21.2309 45.6872 22.1262 45.745 23.0299 45.745C23.4917 45.745 23.9511 45.7299 24.4079 45.6998C28.517 42.628 32.5559 38.0456 35.8081 32.3971C39.0636 26.7419 41.0029 20.9368 41.5992 15.8292C41.7721 14.3495 41.8322 12.9275 41.7796 11.5859ZM13.6834 47.6552C12.4707 47.6552 11.3833 47.3822 10.4529 46.8429C9.19348 46.1143 8.22134 44.905 7.56155 43.2494C7.36194 42.7478 7.1924 42.206 7.05459 41.629C6.76646 40.4264 6.61279 39.0714 6.60193 37.616C6.59942 37.3229 6.60276 37.0248 6.61195 36.7233C6.6938 34.0627 7.20827 31.1845 8.13949 28.1705C9.11581 25.0084 10.5081 21.847 12.277 18.7753C15.1232 13.8319 18.6477 9.63052 22.4686 6.6258C23.5552 5.77078 24.6418 5.03551 25.7108 4.42669C24.8288 4.3128 23.9335 4.25502 23.0299 4.25502C22.568 4.25502 22.1087 4.27009 21.6518 4.30024C17.5428 7.37196 13.5038 11.9544 10.2517 17.6029C6.99613 23.2581 5.05685 29.0632 4.46053 34.1708C4.28765 35.6505 4.22752 37.0725 4.28013 38.4141C4.47223 43.2419 6.13005 47.048 9.28368 48.8736C10.6016 49.6374 12.0882 50 13.6834 50C15.905 50 18.3387 49.2957 20.8225 47.986C19.3952 47.8503 17.9946 47.584 16.6366 47.1929C15.6001 47.4977 14.6088 47.6552 13.6834 47.6552Z" fill="white"/>
<path d="M67.9445 36.3033C66.5245 36.3033 65.0791 36.0497 63.6083 35.5426C62.163 35.01 60.8951 34.3 59.8047 33.4125L61.2881 31.3205C63.5196 32.9941 65.7891 33.8309 68.0967 33.8309C69.2885 33.8309 70.2647 33.5393 71.0255 32.9561C71.7862 32.3728 72.1666 31.5994 72.1666 30.6358C72.1666 29.7483 71.7482 29.0637 70.9114 28.5819C70.0999 28.1001 68.8827 27.631 67.2598 27.1745C66.2709 26.8956 65.4848 26.642 64.9016 26.4138C64.3184 26.1856 63.6591 25.8686 62.9237 25.4629C62.1883 25.0318 61.6431 24.4993 61.2881 23.8653C60.9331 23.206 60.7556 22.4326 60.7556 21.5451C60.7556 19.8715 61.3769 18.5149 62.6194 17.4752C63.8873 16.4355 65.4975 15.9157 67.45 15.9157C69.9858 15.9157 72.3441 16.6384 74.5248 18.0838L73.1935 20.2899C71.241 19.022 69.3011 18.3881 67.374 18.3881C66.2329 18.3881 65.3073 18.667 64.5973 19.2249C63.9126 19.7574 63.5703 20.4547 63.5703 21.3169C63.5703 21.6719 63.6717 22.0015 63.8746 22.3058C64.0775 22.6101 64.3057 22.8637 64.5593 23.0666C64.8128 23.2694 65.2059 23.485 65.7384 23.7132C66.2963 23.9414 66.74 24.1062 67.0697 24.2077C67.3993 24.3091 67.9191 24.4739 68.6292 24.7021C69.5674 24.9811 70.3408 25.2473 70.9494 25.5009C71.558 25.7545 72.2046 26.0968 72.8893 26.5279C73.5739 26.959 74.0811 27.5042 74.4107 28.1635C74.7657 28.7974 74.9432 29.5455 74.9432 30.4076C74.9432 32.2334 74.2839 33.6788 72.9653 34.7438C71.6467 35.7835 69.9731 36.3033 67.9445 36.3033Z" fill="white"/>
<path d="M79.6235 42.0088V16.258H82.5523V20.2138C84.5302 17.2977 87.0406 15.8396 90.0836 15.8396C92.594 15.8396 94.7874 16.7779 96.6639 18.6543C98.5403 20.5054 99.4786 22.9905 99.4786 26.1095C99.4786 29.1778 98.5403 31.6502 96.6639 33.5266C94.7874 35.4031 92.594 36.3413 90.0836 36.3413C86.9899 36.3413 84.4795 34.9466 82.5523 32.1573V42.0088H79.6235ZM89.551 33.7168C91.5289 33.7168 93.1772 33.0321 94.4958 31.6628C95.8144 30.2682 96.4737 28.4044 96.4737 26.0715C96.4737 23.8146 95.8017 21.9889 94.4578 20.5942C93.1138 19.1742 91.4782 18.4642 89.551 18.4642C87.6492 18.4642 85.9883 19.1868 84.5683 20.6322C83.1482 22.0776 82.4382 23.9034 82.4382 26.1095C82.4382 28.3156 83.1482 30.1414 84.5683 31.5868C85.9883 33.0068 87.6492 33.7168 89.551 33.7168Z" fill="white"/>
<path d="M104.388 35.9229V16.258H107.316V35.9229H104.388Z" fill="white"/>
<path d="M113.619 35.9229V8.15625H116.548V35.9229H113.619Z" fill="white"/>
<path d="M122.584 35.9229V16.258H125.513V19.6813C127.06 17.1202 129.304 15.8396 132.245 15.8396C134.578 15.8396 136.417 16.5623 137.761 18.0077C139.105 19.4277 139.777 21.3296 139.777 23.7132V35.9229H136.848V24.4359C136.848 22.5848 136.366 21.1394 135.402 20.0997C134.464 19.0347 133.133 18.5022 131.408 18.5022C129.71 18.5022 128.302 19.0727 127.186 20.2138C126.071 21.3549 125.513 22.8384 125.513 24.6641V35.9229H122.584Z" fill="white"/>
<path d="M161.579 33.3745C159.602 35.3777 157.155 36.3794 154.238 36.3794C151.322 36.3794 148.888 35.3777 146.935 33.3745C145.008 31.3712 144.045 28.9496 144.045 26.1095C144.045 23.2948 145.021 20.8858 146.973 18.8826C148.951 16.8539 151.398 15.8396 154.314 15.8396C157.231 15.8396 159.665 16.8413 161.618 18.8445C163.57 20.8478 164.546 23.2694 164.546 26.1095C164.546 28.9242 163.557 31.3459 161.579 33.3745ZM154.314 33.7548C156.419 33.7548 158.143 33.0195 159.487 31.5487C160.857 30.078 161.541 28.2649 161.541 26.1095C161.541 23.9794 160.831 22.1664 159.411 20.6703C158.017 19.1742 156.292 18.4261 154.238 18.4261C152.134 18.4261 150.409 19.1742 149.065 20.6703C147.721 22.141 147.05 23.9541 147.05 26.1095C147.05 28.2395 147.747 30.0526 149.142 31.5487C150.536 33.0195 152.261 33.7548 154.314 33.7548Z" fill="white"/>
<path d="M105.871 12.4823C107.066 12.4823 108.034 11.5139 108.034 10.3193C108.034 9.12467 107.066 8.15625 105.871 8.15625C104.677 8.15625 103.708 9.12467 103.708 10.3193C103.708 11.5139 104.677 12.4823 105.871 12.4823Z" fill="white"/>
<defs>
<linearGradient id="paint0_linear_629_14424" x1="37.2418" y1="12.6289" x2="8.17671" y2="41.5266" gradientUnits="userSpaceOnUse">
<stop offset="0" stop-color="#7EC9FF"/>
<stop offset="0" stop-color="#7EC9FF"/>
<stop offset="0.50729" stop-color="#16E8E5"/>
<stop offset="1" stop-color="#0052F2"/>
<stop offset="1" stop-color="#0052F2"/>
</linearGradient>
<linearGradient id="paint1_linear_629_14424" x1="37.2418" y1="12.6289" x2="8.17671" y2="41.5266" gradientUnits="userSpaceOnUse">
<stop offset="0" stop-color="#7EC9FF"/>
<stop offset="0" stop-color="#7EC9FF"/>
<stop offset="0.50729" stop-color="#16E8E5"/>
<stop offset="1" stop-color="#0052F2"/>
<stop offset="1" stop-color="#0052F2"/>
</linearGradient>
</defs>
</svg>
